flaticon/household/wardrobe-2.svg

<svg xmlns="http://www.w3.org/2000/svg" width="32" height="32" viewBox="0 0 24 24">
    <path d="M 8 12.800781 C 8.222656 12.800781 8.398438 12.621094 8.398438 12.398438 L 8.398438 10.398438 C 8.398438 10.179688 8.222656 10 8 10 C 7.777344 10 7.601562 10.179688 7.601562 10.398438 L 7.601562 12.398438 C 7.601562 12.621094 7.777344 12.800781 8 12.800781 Z M 8 12.800781"/>
    <path d="M 23.601562 2.070312 L 19.410156 1.273438 C 19.074219 0.503906 18.328125 0 17.476562 0 L 2.523438 0 C 1.355469 0 0.398438 0.953125 0.398438 2.125 L 0.398438 22.398438 L 1.199219 22.398438 L 1.199219 24 L 3.046875 24 L 3.847656 22.398438 L 16.953125 22.398438 L 17.753906 24 L 19.601562 24 L 19.601562 21.578125 L 23.601562 22.503906 Z M 2.554688 23.199219 L 2 23.199219 L 2 22.398438 L 2.953125 22.398438 Z M 18.800781 23.199219 L 18.246094 23.199219 L 17.847656 22.398438 L 18.800781 22.398438 Z M 16.554688 21.601562 L 1.199219 21.601562 L 1.199219 2.125 C 1.199219 1.394531 1.792969 0.800781 2.523438 0.800781 L 17.476562 0.800781 C 17.882812 0.800781 18.253906 0.984375 18.496094 1.289062 C 18.484375 1.292969 18.476562 1.296875 18.46875 1.300781 C 18.441406 1.3125 18.421875 1.324219 18.398438 1.335938 C 18.347656 1.359375 18.296875 1.386719 18.25 1.414062 C 18.226562 1.429688 18.203125 1.445312 18.179688 1.460938 C 18.132812 1.496094 18.085938 1.535156 18.039062 1.574219 C 18.027344 1.589844 18.011719 1.597656 18 1.609375 C 17.75 1.359375 17.402344 1.199219 17.019531 1.199219 L 2.980469 1.199219 C 2.21875 1.199219 1.601562 1.820312 1.601562 2.582031 L 1.601562 21.199219 L 17.953125 21.199219 L 18.800781 21.394531 L 18.800781 21.601562 Z M 10.398438 20.398438 L 10.398438 18.398438 L 17.601562 18.398438 L 17.601562 20.398438 Z M 15.601562 6.398438 C 15.378906 6.398438 15.199219 6.578125 15.199219 6.800781 L 15.199219 7.199219 L 14.800781 7.199219 L 14.800781 6.800781 C 14.800781 6.578125 14.621094 6.398438 14.398438 6.398438 C 14.179688 6.398438 14 6.578125 14 6.800781 L 14 7.199219 L 13.601562 7.199219 L 13.601562 6.800781 C 13.601562 6.578125 13.421875 6.398438 13.199219 6.398438 C 12.980469 6.398438 12.800781 6.578125 12.800781 6.800781 L 12.800781 7.199219 L 12.398438 7.199219 L 12.398438 6.800781 C 12.398438 6.578125 12.222656 6.398438 12 6.398438 C 11.777344 6.398438 11.601562 6.578125 11.601562 6.800781 L 11.601562 7.199219 L 10.398438 7.199219 L 10.398438 6 L 17.601562 6 L 17.601562 7.199219 L 16 7.199219 L 16 6.800781 C 16 6.578125 15.820312 6.398438 15.601562 6.398438 Z M 10.398438 8 L 11.601562 8 L 11.601562 8.800781 C 11.601562 9.019531 11.777344 9.199219 12 9.199219 C 12.222656 9.199219 12.398438 9.019531 12.398438 8.800781 L 12.398438 8 L 12.800781 8 L 12.800781 8.800781 C 12.800781 9.019531 12.980469 9.199219 13.199219 9.199219 C 13.421875 9.199219 13.601562 9.019531 13.601562 8.800781 L 13.601562 8 L 14 8 L 14 8.800781 C 14 9.019531 14.179688 9.199219 14.398438 9.199219 C 14.621094 9.199219 14.800781 9.019531 14.800781 8.800781 L 14.800781 8 L 15.199219 8 L 15.199219 8.800781 C 15.199219 9.019531 15.378906 9.199219 15.601562 9.199219 C 15.820312 9.199219 16 9.019531 16 8.800781 L 16 8 L 17.601562 8 L 17.601562 17.601562 L 10.398438 17.601562 Z M 17.601562 5.199219 L 10.398438 5.199219 L 10.398438 2 L 17.019531 2 C 17.339844 2 17.601562 2.261719 17.601562 2.582031 Z M 9.601562 20.398438 L 2.398438 20.398438 L 2.398438 2.582031 C 2.398438 2.261719 2.660156 2 2.980469 2 L 9.601562 2 Z M 22.800781 21.496094 L 19.601562 20.757812 L 18.398438 20.480469 L 18.398438 2.582031 C 18.398438 2.503906 18.414062 2.433594 18.441406 2.367188 C 18.441406 2.367188 18.441406 2.367188 18.441406 2.363281 C 18.46875 2.300781 18.503906 2.242188 18.550781 2.191406 C 18.554688 2.191406 18.554688 2.1875 18.558594 2.183594 C 18.601562 2.136719 18.65625 2.097656 18.714844 2.066406 C 18.71875 2.0625 18.722656 2.0625 18.726562 2.058594 C 18.789062 2.03125 18.851562 2.011719 18.921875 2.003906 C 18.925781 2.003906 18.929688 2.003906 18.933594 2.003906 L 19.0625 2.039062 L 19.152344 2.039062 L 22.800781 2.730469 Z M 22.800781 21.496094"/>
</svg>

<svg xmlns="http://www.w3.org/2000/svg" width="32" height="32" viewBox="0 0 24 24">
    <path d="M8 12.8c.223 0 .398-.179.398-.402v-2a.398.398 0 1 0-.796 0v2c0 .223.175.403.398.403zm0 0"/>
    <path d="M23.602 2.07l-4.192-.797A2.103 2.103 0 0 0 17.477 0H2.523A2.13 2.13 0 0 0 .398 2.125v20.273H1.2V24h1.848l.8-1.602h13.106l.8 1.602h1.849v-2.422l4 .926zM2.555 23.2H2v-.802h.953zm16.246 0h-.555l-.398-.802h.953zm-2.246-1.598H1.199V2.125c0-.73.594-1.324 1.324-1.324h14.954c.406 0 .777.183 1.02.488a.19.19 0 0 0-.028.012c-.028.012-.047.023-.07.035-.051.023-.102.05-.149.078l-.07.047c-.047.035-.094.074-.14.113-.013.016-.028.024-.04.035-.25-.25-.598-.41-.98-.41H2.98c-.761 0-1.378.621-1.378 1.383v18.617h16.351l.848.196v.207zm-6.157-1.204v-2h7.204v2zm5.204-14a.402.402 0 0 0-.403.403v.398h-.398v-.398a.401.401 0 0 0-.8 0l-.001.398h-.398v-.398a.401.401 0 0 0-.8 0l-.001.398h-.403v-.398a.398.398 0 1 0-.796 0v.398h-1.204V6h7.204v1.2H16v-.4a.401.401 0 0 0-.398-.402zM10.398 8h1.204v.8a.398.398 0 1 0 .796 0V8h.403v.8a.4.4 0 0 0 .8 0V8H14v.8a.4.4 0 0 0 .8 0V8h.4v.8a.401.401 0 0 0 .8 0V8h1.602v9.602h-7.204zm7.204-2.8h-7.204V2h6.622c.32 0 .582.262.582.582zm-8 15.198H2.398V2.582c0-.32.262-.582.582-.582h6.622zM22.8 21.496l-3.2-.738-1.203-.278V2.582c0-.078.016-.148.043-.215v-.004a.612.612 0 0 1 .11-.172c.004 0 .004-.003.008-.007a.585.585 0 0 1 .156-.118c.004-.003.008-.003.012-.007a.66.66 0 0 1 .195-.055h.012l.128.035h.09l3.649.691zm0 0"/>
</svg>
